X:1
T:Intermezzo
T:Intermezzo
T:E-Dur Op. 116, No. 4
T:Johannes Brahms 1833-1897
C:Johannes Brahms
Z:1833-1897
%%score { ( 1 5 6 ) | ( 2 3 4 ) }
L:1/8
Q:1/4=52
M:3/4
K:E
V:1 treble nm="Piano" snm="Pno."
V:5 treble 
V:6 treble 
V:2 bass 
V:3 bass 
V:4 bass 
V:1
"^Adagio"!p!!<(! z2!<)! |"_m.d."!>(! x4"_dolce" (g2!>)! | c3) z (f2 | A3) z (3:2:2(c2 B) | %4
 (A4!<(! G2)!<)! |!>(! x4 (g2!>)! | ^A3) z (f2 | B3) z!<(! (.c.d)!<)! | (ef!>(!=gec"_dim."^A)!>)! | %9
 (c4 B2-) | B2- (3B(ba (3=c=gf) |"^espress." B2- (3B(ba (3=c"^4"=gf | (3A!4!e=d (3F=cB (3EA=G | %13
 (3=CFE (3A,=DC F,B,- | B,4)!<(! z2!<)! |"_m.d."!>(! x4"_dolce" (g2-!>)! | g2 c2) (f2- | %17
 f2 A2) (.!4!c.B) | (!5!A4 !4!G2) | x4 g2- | g3 !4!f !5!e2- |!<(! e3 !4
!d (.!2!^A.!3
1!B)!<)! | %22
!f! (.c.d) e3 (.!4!c |!p! .!5!B.!4!^A) z (.!5!c.B!<(!.A)!<)! | %24
 z!f! (.!5!e.!4!d.!3!c.!5!^A.!4!^^F) |!>(! (!5!^A4 !4!G2-)!>)! | %26
 G2-!<(! (3G(gf!>(! (3Aed)!<)!!>)! | G2- (3G(gf!<(! (3Ae!1!d-!<)! | %28
"_espress.""_cresc." (3(.c').b.a) (3:2:2(!4!g2 f (3:2:2e2 a) | (3(gaf (3ec'a (3dbg) | %30
 (3(!2
1!cdf (3:2:2e2 !3!c (3Bce | %31
 (3:2:2d2 B"_dim.molto""_smorzando" (3:2:2!2
1!^A) (!4!B2 (3:2:2A2 B- | %32
 (3:2:2B ^A2- (3A) z z!p!!<(! x2!<)! |!>(! x4 x2!>)! | x6 | x6 | x4 ([dbd']2 | %37
 [cac']3 [Bgb]d[Afa] | [Geg]3 [Fdf]A[Ece] | [DBd]F[CAc]E[B,GB]D) | ([A,FA]4 !arpeggio![G,B,EG]2) | %41
 [ec'e']3 [=db=d']f[cac'] | [Bgb]3 [Afa]=d[Geg] | [F=df]A[Ece]G[=DBd]F | %44
"^ben legato" C3 x!<(!!>(! [faf']2!<)!!>)! | [GB]4!<(!!>(! [e=ge']2!<)!!>)! | %46
 C3 x!<(!!>(! [faf']2!<)!!>)! |"_dim." [GB]4!<(!!>(! [e=ge']2!<)!!>)! |!pp! [CAc]6- | %49
 [CAc]4!p!!<(! x2!<)! |!>(! x4 x2!>)! | x6 | x4"_espr." (g2- | g2 c) (f (=e2-) | %54
!<(! e2 A) (.e.d.c)!<)! | BAF e=d=c | BAF^C!<(! z2!<)! |"_m.d."!f! x4 x2 |!pp! ([=DG=d]2 [CAc]4) | %59
 x6 | (.[a=c'd'a']2 .[gbd'g']2 .[fad'f']2) | ([egbe']3 [dbd']f[^ca^c'] | [Bgb]3 [Afa]d[Geg] | %63
 [Fdf]A[Ece]G[DBd]F) |"^ben legato" C3 x!<(!!>(! [faf']2!<)!!>)! | [GB]4!<(!!>(! [e=ge']2!<)!!>)! | %66
 ([=A,B,DF]3 .A) .G.F | E2- (3E(ed (3FcB) | E2-"_dim." (3E(AG (3CFE) | (A,2- (3A,DC (3F,B,A,-) | %70
 E4 [ABdb]2 | !fermata![Begbe']4 |] %72
V:2
 (3[G,B,]E,-[G,-B,] | [E,G,]4 z2 | (3z (E,A,- [A,F]4) | (3z (E,F,- [F,D]4) | %4
 (3z (E,,B,,- [B,,F,]2) (3[G,B,]E,-[G,-B,] |"_m.d." [E,G,]4 z2 | (3z (E,C- [CF]4) | %7
 (3z (D,F,- [F,B,]4) | (3(C,=G,B,) (6:4:6(F,,E,^A,F,CE) | (B,,,F,,(.D,).F,.D.F) | %10
[K:treble] (d4 [Ae]2 | [Bd]4 ([Ae]2) | F2 D2 =C2 |[K:bass] A,2 F,2 D,2-) | D,4 (3[G,B,]E,-[G,-B,] | %15
 [E,G,]4 z2 | (3z (E,A,- [A,F]4) | (3z (E,F,- [F,D]4) | (3z (E,,B,,- [B,,F,]2) (3B,E,-[G,-B,] | %19
"_m.d." [E,G,]4 z2 | (3z (C,G,- [G,E]4) | (3z (D,^A,- [A,C]4) | (3(^A,,,G,,E, (3^A,,G,E C) z | %23
 (3(C,,G,,E,) (3z (C,G, C) z | (3(D,,^A,,^^F, (3D,^A,^^F D) z | G,,,D,,(.B,,.D,.!1!B,.D) | %26
[K:treble]!p! (B4 [Fc]2 | [G^B]4 [FAc]2-) | [FAc]2!<(! ^B2!>(! z2!<)!!>)! | ^B2 z4 | %30
 (3:2:2(F2 C- (3:2:2C D2 (3:2:2E2 B,- | (3:2:2B, C2) (3:2:2(D2 E- (3:2:2E D2 | %32
 (3:2:2E2 D- (3:2:2D C2)[K:bass]"_m.d." (3[G,B,]D,-[G,-B,] | [D,F,G,]2 [E,G,]4- | %34
 [E,G,]2 [D,^^F,]4 | [C,^^F,^A,]2 [B,,G,]4 | [G,,B,,D,G,]4"^dolce""^una""^corda" z2 | %37
 (B,,,/F,,/B,,/D,/ F,/A,/B,/D/ F) z | (!tenuto!B,,,/A,,/B,,/D,/ F,/A,/B,/D/ F) z | %39
 (!tenuto!B,,,/A,,/B,,/D,/ B,,/E,/A,/E,/ B,,/D,/G,/D,/) | (B,,,/F,,/B,,/C,/ B,,/D,/G,/B,/) z2 | %41
 (E,,,/E,,/G,,/B,,/ E,/F,/G,/B,/ =D) z | (E,,,/E,,/G,,/B,,/ =D,/E,/F,/A,/ B,) z | %43
 (E,,/=D,/F,/A,/ E,,/C,/E,/G,/ E,,/B,,/D,/F,/) | %44
"_col."!ped! z/ (E,,/A,,/C,/ E,/A,/C/E/) x2!ped-up! | z/ (E,,/G,,/B,,/ E,/G,/B,/E/) x2 | %46
 z/ (E,,/A,,/C,/ E,/A,/C/E/) x2 | z/ (E,,/G,,/B,,/ E,/G,/B,/E/) x2 | %48
!ped! (3(E,,,E,,)(.A,, (3.C,).E,.A, x2!ped-up! | x4"^tutte corde""_m.d." (3[G,B,]E,[G,-B,] | %50
 [=D,F,G,^B,]2 [C,^E,G,C]4 | [^D,G,C]4 [D,G,^B,]2 | [C,^E,G,C]4 z2 | (3z (A,,,A,, (3C,F,A, C2) | %54
 (3z (A,,,A,, (3B,,F,A, B,2) | (3(E,,,E,,B,,) (3(E,,A,,A,) (3F,E,,A,, | %56
 (6:4:6E,,=C,E,,D,E,,F, (3[^G,B,]E,-[G,-B,] |!>(! [E,G,]6!>)! |"^una corda" E,,,6 | E,6 | %60
 (3(E,,,E,,)(.A,, (3.E,.A,.=C)[K:treble] (3(.E.A.=c) | (e/B/G/E/ E,/E/G/B/ d/A/F/D/) | %62
 (e/G/E/B,/ E,/B,/D/F/ B/G/E/C/) |[K:bass] (E,/A,/D/B,/ E,/G,/C/A,/ E,/F,/B,/G,/) | %64
 z/ (E,,/A,,/C,/ E,/A,/C/E/) x2 | z/ (E,,/G,,/B,,/ E,/G,/B,/E/) x2 | %66
 (3(E,,,B,,,E,,) (6:4:6(.B,,.D,.F,.A,.B,.D) | %67
!ped! !arpeggio![E,G,B,] z E,,, z!ped! !arpeggio![E,A,D] z!ped-up! | %68
!ped! !arpeggio![E,A,C] z E,,, z !arpeggio![E,A,] z!ped-up! | %69
!ped! !arpeggio![E,,F,] z E,,, z !arpeggio![E,,D,] z!ped-up! | %70
!ped! !arpeggio![E,,B,,] z!ped! z2!ped! !arpeggio![E,,B,,F,]2!ped-up! | %71
!ped! !arpeggio![E,G,B,]2 !fermata!E,,,2!ped-up! |] %72
V:3
 (3:2:2x E,2 | ^B,2 C2 x2 | (3:2:2x E,2- E,4 | (3:2:2x E,2- E,4 | (3:2:2x E,,2- E,,2 (3:2:2x E,2 | %5
 ^B,2 C2 x2 | (3:2:2x E,2- E,4 | (3:2:2x D,2- D,4 | x6 | x6 |[K:treble] x6 | x6 | x6 |[K:bass] x6 | %14
 x4 (3:2:2x E,2 | ^B,2 C2 x2 | (3:2:2x E,2- E,4 | (3:2:2x E,2- E,4 | %18
 (3:2:2x E,,2- E,,2 (3:2:2x E,2 | ^B,2 C2 x2 | (3:2:2x x2- C,4 | (3:2:2x x2- D,4 | x6 | x6 | x6 | %25
 x6 |[K:treble] x6 | x6 | x6 | x6 | x6 | x6 | x4[K:bass] (3:2:2x D,2 | ^B,2 C2 =B,2 | %34
 ^A,4"^dim." B,2 | x2 x4 | x6 | x6 | x6 | x6 | x6 | x6 | x6 | x6 | x6 | x6 | x6 | x6 | x6 | %49
 x4 (3:2:2x E,2 | x6 | x6 | x6 | x6 | x6 | x6 | x4 (3:2:2x E,2 | ^B,2 C4 | x6 | [B,=D]2 [=C^D]4 | %60
 x4[K:treble] x2 | x6 | x6 |[K:bass] x6 | x6 | x6 | x6 | x6 | x6 | x6 | x6 | x4 |] %72
V:4
 x2 | E,,4 x2 | x6 | x6 | x6 | E,,4 x2 | x6 | x6 | x6 | x6 |[K:treble] x6 | x6 | x6 |[K:bass] x6 | %14
 x6 | E,,4 x2 | x6 | x6 | x6 | E,,4 x2 | x6 | x6 | x6 | x6 | x6 | x4 B, x |[K:treble] x6 | x6 | %28
 x2 (3(GFG (3AEF) | (3(GFG (3AEF (3GDE) | x6 | x6 | x2 x2[K:bass] (G,,2 | (C,,6) | D,,6) | %35
 G,,,4 G,,,2- | G,,,4 x2 | x6 | x6 | x6 | x6 | x6 | x6 | x6 | x6 | x6 | x6 | x6 | x6 | x4 (E,,2 | %50
 =D,,2 C,,2 G,,,2-) | G,,,2 (G,,,4 | C,,,4) x2 | x6 | x6 | x2 (3:2:2x2 A, (3:2:2F, x2 | x6 | E,,6 | %58
 x6 | E,,6 | x4[K:treble] x2 | x6 | x6 |[K:bass] x6 | x6 | x6 | x6 | x6 | x6 | x6 | x6 | x4 |] %72
V:5
 x2 | x6 | x6 | x6 | x6 | x6 | x6 | x6 | x6 | x6 | x6 | x6 | (3:2:2A2 x (3:2:2F2 x (3:2:2E2 x | %13
 (3:2:2x2 x (3:2:2A,2 x x2 | x6 | x6 | x6 | x6 | x6 | x6 | x6 | x6 | x6 | x6 | x6 | x6 | %26
 x4 (3:2:2A2 x | x6 | x6 | x6 | x6 | x6 | x6 | x6 | x6 | x6 | x6 | x6 | x6 | x6 | x6 | x6 | x6 | %43
 x6 | x6 | x6 | x6 | x6 | x6 | x6 | x6 | x6 | x6 | x6 | x6 | x6 | x6 | x6 | x6 | x6 | x6 | x6 | %62
 x6 | x6 | x6 | x6 | x6 | x6 | x6 | x6 | x6 | x4 |] %72
V:6
 x2 | x6 | x6 | x6 | x6 | x6 | x6 | x6 | x6 | x6 | x6 | x6 | x6 | x4 (F,2 | ^^F,4) x2 | x4 ge | %16
cB A2 fc |AG !1!F4- | F(.!3!E.D.C) x2 | x4 ge |cB!<(! ^A2 e!4!c!<)! | !3!^A!2!G !1!^^F3 G | %22
 ED!arpeggio!C!3!B!>(!!2!^A!1!G!>)! | z (.!3!G.!2!F.!1!E) z !1!E | !1!D!arpeggio!CD!1!E!2!C!1!^A, | %25
 !2!C4 x2 | x6 | x6 | d4 c2 | d2 c2 B2 | (3:2:2^A2 G- (3:2:2G ^^F2 (3:2:2G2 ^F- | %31
 (3:2:2F ^E2 (3:2:2^^F2 G- (3:2:2G ^^F2 | (3:2:2G2 ^^F- (3F x x x2 | x6 | x6 | x6 | x6 | x6 | x6 | %39
 x6 | x4 [f=d'f']2 | x6 | x6 | x6 | [Ac]4 !arpeggio![=CA=c]2 | B,3 x !arpeggio![^A,=G^A]2 | %46
 [Ac]4 !arpeggio![=CA=c]2 | B,3 x !arpeggio![^A,=G^A]2 | x4!>(! (3(.C.E.A)!>)! | %49
 (3(.c.e.a) c'2 x2 | x6 | x6 | x4 g^e |cB A2 ec | AG F2 z E | DC=C x x E | =D=C A,2 x2 | x6 | x6 | %59
 x6 | x6 | x6 | x6 | x6 | [Ac]4 !arpeggio![=CA=c]2 | B,3 x !arpeggio![^A,=G^A]2 | x6 | x4 F2 | %68
 x4 C2 | x6 | (A,2 G,2) x2 | x4 |] %72

